public/avatar/hat/149.svg

<svg xmlns:xlink="http://www.w3.org/1999/xlink" height="92.9" width="100.7" xmlns="http://www.w3.org/2000/svg"><g transform="translate(38.65 49.75)"><use height="27.65" transform="translate(-19.15 -18.8)" width="15.4" xlink:href="#a"/><use height="29.45" transform="translate(3.8 -20.2)" width="19.2" xlink:href="#b"/><use height="13.55" transform="translate(-9.8 -3.35)" width="20.8" xlink:href="#c"/><use height="17.45" transform="translate(-18.25 -8.4)" width="19.95" xlink:href="#d"/></g><defs><use height="27.65" width="15.4" xlink:href="#e" id="a"/><use height="29.45" width="19.2" xlink:href="#f" id="b"/><use height="13.55" width="20.8" xlink:href="#g" id="c"/><use height="17.45" width="19.95" xlink:href="#h" id="d"/><g id="e" fill-rule="evenodd"><path d="m7.05 3.15.6 2.95.05 1.15Q4.65 8.3 4.1 9.1l.05-.1-2.1 1.9-2.45 2.9q.15-2.25 1.45-3.9L-3 6.65l-2.85-3.2h.05L5.7-.15 6.8 2.9l.2.3.05-.05" fill="#4b271a" transform="translate(7.7 13.85)"/><path d="m6.8 2.95-10.1 3.4Q-5.7 3.95-7.7.9q2.75-.95 2.15-3.1 3-1.15 1.1-3.4 1-.95.9-2.55-.15-1.65-1.4-2.15.55-.85.2-2-.4-1.25-1.55-1.55 1.65-.15 4.55 2.25 2.8 2.35 4.65 5.4 1.55 2.6 3.9 9.15" fill="#4b271a" transform="translate(7.7 13.85)"/><path d="M-4.45-1.3q2.5-1.9 1.4-4.25 1.35-1.35.6-2.65l-.85-2.1-.3-1.45Q.3-8.55 2.5-4.6 5.65 1 7 7.15q-1.35.45-3 1.7L2.65 10q-5-3.25-8.75-8.25Q-4.65.9-4.45-1.3" fill="#8b594d" transform="translate(7.7 13.85)"/><path d="M-2.45-8.05q-.1-.65.55 0L.95-4.6Q3.5-1 5.9 6.5q-1.8 1.15-2.15 2-5.8-4.35-8.2-8.35.1-1.5.35-1.7 1.15-.9 1.35-2.25l.2-1.95q.3-.85.1-2.3" fill="#6e3d34" transform="translate(7.7 13.85)"/><path d="m-3.55-11.6 1.3.8q1.6 1.3 3.3 4.05-.95-1.4-2.3-2.4l-1.1-.75.5 1.4q.35 1.7-.55 3.1.85 2.2-1.6 3.95.1 1-.55 2 .5-.9.1-1.85 2-1.85 1.4-4.25 1.3-2.3-.25-4.75l-.25-1.3" fill="#f7c5ac" transform="translate(7.7 13.85)"/></g><g id="f" fill-rule="evenodd"><path d="M9.45-8.05Q8.9-3.1 6.7.65q-2.55 4.5-9.45 10.2L-.7 14.7l-2.85-3.2q-.45-.1-1.4-.6-1-.55-2.3-1-1.35-.5-2.3-1.85-.25-2.55.65-3.75l.05.05q1.8-6.85 4.4-10.45 2.5-3.4 6-6.15 4.25-3.3 6.35-2.25 2.15 1.15 1.55 6.45" fill="#4b271a" transform="translate(9.6 14.75)"/><path d="M8.1-7.7q-.8 5.15-3.45 9.15-3.75 5.65-9.1 9-2.2-2.1-4.4-2.85 1.4-6.15 4.5-11.75 2.25-4.05 6.3-7.1Q5.8-14.2 7.3-13.4q1.5.8.8 5.7" fill="#8b594d" transform="translate(9.6 14.75)"/><path d="M3.65-.15Q1.3 3.85-5.1 9.2q-.35-.85-2.1-2Q-4.85-.3-2.35-3.9-.5-6.6 2.6-9.35q3-2.7 3.7-2.3.7.4-.1 4.45-.85 4.25-2.55 7.05" fill="#6e3d34" transform="translate(9.6 14.75)"/><path d="M.65-8.25Q-3.55-4.2-6.2.95q6.05-12.8 13.2-14 .5-.05-.15.4-.6.45-1.2.65-1.8.7-5 3.75" fill="#bc8a78" transform="translate(9.6 14.75)"/></g><g id="g" fill-rule="evenodd"><path d="m.75 4.9.65.65q-.75.2-.75 1.2 0 .8 1.25 1.9l1.9 1.75v.45l.05.2v.4H3.8v.7h-.15v.05Q1 10.15-.7 10.45q-1.05 2.25-3.55 4.75-.8-4-1.95-5.05-.85.25-1.55.9l-1 1.25-.7 1.6q-1.25-2.55-1.25-3.75-1.35.2-3 1.05l-1.35.8.05-1.05-.35-1.3h.15l1.2-.8q.05-.75 1.05-1.45l2.1-1.4L-12 4.45V4.4l-.35-.1q1.15-1 2.5-1.2l2.15.05 1.55-.85q1.8-.8 3.2-.6l-.15 1.75 2.1.45 1.75 1" fill="#4b271a" transform="translate(15.35 -1.65)"/><path d="M3.25 10.95q-.8-.95-2.7-1.3l-1.75-.2-2.75 4.25q-.2-2.2-1.3-3.65l-1-1-1.15.45q-1.35.8-2.2 2.65V9.5h-1.65q-1.9.15-3.15 1.2.45-2 2.3-3.65l1.75-1.25-1.25-1.4 1.1-.35 2.85.15q.7-.7 2.35-1.05l1.5-.2-.05 1.25Q-2.6 4 1 5.3L-.55 6.4q3.75 2.25 3.8 4.55" fill="#8b594d" transform="translate(15.35 -1.65)"/><path d="M-4.55 5.65.7 8.45l-4.45-1.8.2 4.15q-.5-2-1.85-3.35l-1.3-.95-.65.4q-.9.85-1.9 2.95l1-3.4-2.2.8q-2.4 1.05-3.6 2.6l1.05-1.8q1.55-1.95 4.15-2.75-.15-.8-1.45-.9h-1.3l1.15-.35 2.9.1Q-6.5 3.2-3.9 2.9q-1.35.55-1.85 1.15l-.25.5 5 .65-3.55.45" fill="#bc8a78" transform="translate(15.35 -1.65)"/><path d="M3.25 10.95Q3.15 8.4-.55 6.4L1 5.3l-1.6-.55.2-.8 2.8 1.1Q1.25 5.8.75 6.5L2.5 8.05q1.6 1.95.8 3.85l-.05-.95M-15 10.9q.1-.8.6-1.85 1-2.1 2.95-3.15l-1.15-1.65 2.45-1.2.15.9-1.7.45 1.35 1.4L-12 7q-1.75 1.6-2.4 3.7l-.6.2" fill="#4b271a" transform="translate(15.35 -1.65)"/><path d="m-2.3 6.05 1.75.35q3.35 1.65 3.8 4.55-.85-2.3-3.3-3.8l-2.25-1.1m-4.5 2.2.55.8-3.35 3.1q.15-1.85 1.5-3.05l1.3-.85m5.05-.05.55 1.25q-1.3 3-2.75 4.25 2.1-2.3 2.2-5.5m-12.5 2.35q1.25-1.15 3.2-1.6l1.65-.25-.2.8-3.35.45-1.3.6" fill="#6e3d34" transform="translate(15.35 -1.65)"/><path d="m-12 4.6 1.55 1.1q-2.3 1.25-3.3 3.05l-.5 1.5-.05.95q-.8-1.9.8-3.85l1.75-1.55q-.5-.7-1.65-1.45l2.8-1.1.2.8-1.6.55" fill="#4b271a" transform="translate(15.35 -1.65)"/></g><g id="h" fill-rule="evenodd"><path d="M6.95-3.6 8-2.6q2.75 1.9 1.65 3.75-.8 1.3-6.9.5Q1.2 3.85-.15 3.3l-1.3 2.45q-2.05 3.1-2.9 3.05-2.1 0-2.25-3.4-.1-1.15-.25-1.35l-.85-.9Q-10.1.75-10-.55q.1-.65.7-1.05l.1-.05h.05q3.3-1.35 6.35-.4.95-.85 1.95-1.05l.8-.1q.25-2.65 3.4-5.35l.05-.05h.05l1.3-.05q1.3.65 1.9 3.9l.3 1.15" fill="#5b0062" transform="translate(10 8.65)"/><path d="M-3.85-.9q.7-.4.65 2.1.35.6 2.2 1.75-1.5 5.25-3.4 5.2-1.1-.05-1.45-1.9-.45-2.45-.6-2.65L-8.6 1.15q-1.35-1.8-.45-2.35l5.2.3m7.5-7.25q1-.5 1.8 1.55l.9 3.15q.1.3 1.95 1.95Q9.7-.2 9.1.75 8.1 2.4 2.95.8 3-1.15 2.7-1.75.3-3 1-3.4q.75-.4 2.65-4.75" fill="#c55bfc" transform="translate(10 8.65)"/><path d="m-2.25-1.35 2-1.1 1.95 1.1q.3.3.15 1.55L1.5 1.65q-.5.4-1.5.7l-2-1.4q-.85-.5-.25-2.3" fill="#b642fc" transform="translate(10 8.65)"/><path d="m-8.25-.55 1.75.2 1.5.6q-.7.15-.8 1.85l.05 1.65-1.4-1.95q-1.3-2-1.1-2.35M4.1-7.3l.45 1.75q.3 1.55.85 2.2l2.65 3.3q.2.6-.85.6-1 0-1.85-.5-.65-.4-.7-1L4.6-2.3 2.85-4.1 4.1-7.3m-5 5.9 1.65.2q.6.55.2 2.1Q.25.15-.3.25q-.55.15-.95-.3Q-1.7-.6-.9-1.4" fill="#e1acf7" transform="translate(10 8.65)"/><path d="m-8.95-1.2 1.75-.4q2.05-.3 3.35 0l-4.4.6-.7-.2m12.6-6.95-.2.65q-.5.1-2.6 3.25.4-1.25 1.65-2.7l1.15-1.2" fill="#c55bfc" transform="translate(10 8.65)"/></g></defs></svg>

<?xml version="1.0" encoding="UTF-8" standalone="no"?>
<svg xmlns:xlink="http://www.w3.org/1999/xlink" height="92.9px" width="100.7px" xmlns="http://www.w3.org/2000/svg">
  <g transform="matrix(1.0, 0.0, 0.0, 1.0, 38.65, 49.75)">
    <use height="27.65" transform="matrix(1.0, 0.0, 0.0, 1.0, -19.15, -18.8)" width="15.4" xlink:href="#sprite0"/>
    <use height="29.45" transform="matrix(1.0, 0.0, 0.0, 1.0, 3.8, -20.2)" width="19.2" xlink:href="#sprite1"/>
    <use height="13.55" transform="matrix(1.0, 0.0, 0.0, 1.0, -9.8, -3.35)" width="20.8" xlink:href="#sprite2"/>
    <use height="17.45" transform="matrix(1.0, 0.0, 0.0, 1.0, -18.25, -8.4)" width="19.95" xlink:href="#sprite3"/>
  </g>
  <defs>
    <g id="sprite0" transform="matrix(1.0, 0.0, 0.0, 1.0, 7.7, 13.85)">
      <use height="27.65" transform="matrix(1.0, 0.0, 0.0, 1.0, -7.7, -13.85)" width="15.4" xlink:href="#shape0"/>
    </g>
    <g id="shape0" transform="matrix(1.0, 0.0, 0.0, 1.0, 7.7, 13.85)">
      <path d="M7.05 3.15 L7.65 6.1 7.7 7.25 Q4.65 8.3 4.1 9.1 L4.15 9.0 2.05 10.9 -0.4 13.8 Q-0.25 11.55 1.05 9.9 L-3.0 6.65 -5.85 3.45 -5.8 3.45 5.7 -0.15 6.8 2.9 7.0 3.2 7.05 3.15" fill="#4b271a" fill-rule="evenodd" stroke="none"/>
      <path d="M6.8 2.95 L-3.3 6.35 Q-5.7 3.95 -7.7 0.9 -4.95 -0.05 -5.55 -2.2 -2.55 -3.35 -4.45 -5.6 -3.45 -6.55 -3.55 -8.15 -3.7 -9.8 -4.95 -10.3 -4.4 -11.15 -4.75 -12.3 -5.15 -13.55 -6.3 -13.85 -4.65 -14.0 -1.75 -11.6 1.05 -9.25 2.9 -6.2 4.45 -3.6 6.8 2.95" fill="#4b271a" fill-rule="evenodd" stroke="none"/>
      <path d="M-4.45 -1.3 Q-1.95 -3.2 -3.05 -5.55 -1.7 -6.9 -2.45 -8.2 L-3.3 -10.3 -3.6 -11.75 Q0.3 -8.55 2.5 -4.6 5.65 1.0 7.0 7.15 5.65 7.6 4.0 8.85 L2.65 10.0 Q-2.35 6.75 -6.1 1.75 -4.65 0.9 -4.45 -1.3" fill="#8b594d" fill-rule="evenodd" stroke="none"/>
      <path d="M-2.45 -8.05 Q-2.55 -8.7 -1.9 -8.05 L0.95 -4.6 Q3.5 -1.0 5.9 6.5 4.1 7.65 3.75 8.5 -2.05 4.15 -4.45 0.15 -4.35 -1.35 -4.1 -1.55 -2.95 -2.45 -2.75 -3.8 L-2.55 -5.75 Q-2.25 -6.6 -2.45 -8.05" fill="#6e3d34" fill-rule="evenodd" stroke="none"/>
      <path d="M-3.55 -11.6 L-2.25 -10.8 Q-0.65 -9.5 1.05 -6.75 0.1 -8.15 -1.25 -9.15 L-2.35 -9.9 -1.85 -8.5 Q-1.5 -6.8 -2.4 -5.4 -1.55 -3.2 -4.0 -1.45 -3.9 -0.45 -4.55 0.55 -4.05 -0.35 -4.45 -1.3 -2.45 -3.15 -3.05 -5.55 -1.75 -7.85 -3.3 -10.3 L-3.55 -11.6" fill="#f7c5ac" fill-rule="evenodd" stroke="none"/>
    </g>
    <g id="sprite1" transform="matrix(1.0, 0.0, 0.0, 1.0, 9.6, 14.75)">
      <use height="29.45" transform="matrix(1.0, 0.0, 0.0, 1.0, -9.6, -14.75)" width="19.2" xlink:href="#shape1"/>
    </g>
    <g id="shape1" transform="matrix(1.0, 0.0, 0.0, 1.0, 9.6, 14.75)">
      <path d="M9.45 -8.05 Q8.9 -3.1 6.7 0.65 4.15 5.15 -2.75 10.85 L-0.7 14.7 -3.55 11.5 Q-4.0 11.4 -4.95 10.9 -5.95 10.35 -7.25 9.9 -8.6 9.4 -9.55 8.05 -9.8 5.5 -8.9 4.3 L-8.85 4.35 Q-7.05 -2.5 -4.45 -6.1 -1.95 -9.5 1.55 -12.25 5.8 -15.55 7.9 -14.5 10.05 -13.35 9.45 -8.05" fill="#4b271a" fill-rule="evenodd" stroke="none"/>
      <path d="M8.1 -7.7 Q7.3 -2.55 4.65 1.45 0.9 7.1 -4.45 10.45 -6.65 8.35 -8.85 7.6 -7.45 1.45 -4.35 -4.15 -2.1 -8.2 1.95 -11.25 5.8 -14.2 7.3 -13.4 8.8 -12.6 8.1 -7.7" fill="#8b594d" fill-rule="evenodd" stroke="none"/>
      <path d="M3.65 -0.15 Q1.3 3.85 -5.1 9.2 -5.45 8.35 -7.2 7.2 -4.85 -0.3 -2.35 -3.9 -0.5 -6.6 2.6 -9.35 5.6 -12.05 6.3 -11.65 7.0 -11.25 6.2 -7.2 5.35 -2.95 3.65 -0.15" fill="#6e3d34" fill-rule="evenodd" stroke="none"/>
      <path d="M0.65 -8.25 Q-3.55 -4.2 -6.2 0.95 -0.15 -11.85 7.0 -13.05 7.5 -13.1 6.85 -12.65 6.25 -12.2 5.65 -12.0 3.85 -11.3 0.65 -8.25" fill="#bc8a78" fill-rule="evenodd" stroke="none"/>
    </g>
    <g id="sprite2" transform="matrix(1.0, 0.0, 0.0, 1.0, 15.35, -1.65)">
      <use height="13.55" transform="matrix(1.0, 0.0, 0.0, 1.0, -15.35, 1.65)" width="20.8" xlink:href="#shape2"/>
    </g>
    <g id="shape2" transform="matrix(1.0, 0.0, 0.0, 1.0, 15.35, -1.65)">
      <path d="M0.75 4.9 L1.4 5.55 Q0.65 5.75 0.65 6.75 0.65 7.55 1.9 8.65 L3.8 10.4 3.8 10.85 3.85 11.05 3.85 11.45 3.8 11.45 3.8 12.15 3.65 12.15 3.65 12.2 Q1.0 10.15 -0.7 10.45 -1.75 12.7 -4.25 15.2 -5.05 11.2 -6.2 10.15 -7.05 10.4 -7.75 11.05 L-8.75 12.3 -9.45 13.9 Q-10.7 11.35 -10.7 10.15 -12.05 10.35 -13.7 11.2 L-15.05 12.0 -15.0 10.95 -15.35 9.65 -15.2 9.65 -14.0 8.85 Q-13.95 8.1 -12.95 7.4 L-10.85 6.0 -12.0 4.45 -12.0 4.4 -12.35 4.3 Q-11.2 3.3 -9.85 3.1 L-7.7 3.15 -6.15 2.3 Q-4.35 1.5 -2.95 1.7 L-3.1 3.45 -1.0 3.9 0.75 4.9" fill="#4b271a" fill-rule="evenodd" stroke="none"/>
      <path d="M3.25 10.95 Q2.45 10.0 0.55 9.65 L-1.2 9.45 -3.95 13.7 Q-4.15 11.5 -5.25 10.05 L-6.25 9.05 -7.4 9.5 Q-8.75 10.3 -9.6 12.15 L-9.6 9.5 -11.25 9.5 Q-13.15 9.65 -14.4 10.7 -13.95 8.7 -12.1 7.05 L-10.35 5.8 -11.6 4.4 -10.5 4.05 -7.65 4.2 Q-6.95 3.5 -5.3 3.15 L-3.8 2.95 -3.85 4.2 Q-2.6 4.0 1.0 5.3 L-0.55 6.4 Q3.2 8.65 3.25 10.95" fill="#8b594d" fill-rule="evenodd" stroke="none"/>
      <path d="M-4.55 5.65 L0.7 8.45 -3.75 6.65 -3.55 10.8 Q-4.05 8.8 -5.4 7.45 L-6.7 6.5 -7.35 6.9 Q-8.25 7.75 -9.25 9.85 L-8.25 6.45 -10.45 7.25 Q-12.85 8.3 -14.05 9.85 L-13.0 8.05 Q-11.45 6.1 -8.85 5.3 -9.0 4.5 -10.3 4.4 L-11.6 4.4 -10.45 4.05 -7.55 4.15 Q-6.5 3.2 -3.9 2.9 -5.25 3.45 -5.75 4.05 L-6.0 4.55 -1.0 5.2 -4.55 5.65" fill="#bc8a78" fill-rule="evenodd" stroke="none"/>
      <path d="M3.25 10.95 Q3.15 8.4 -0.55 6.4 L1.0 5.3 -0.6 4.75 -0.4 3.95 2.4 5.05 Q1.25 5.8 0.75 6.5 L2.5 8.05 Q4.1 10.0 3.3 11.9 L3.25 10.95" fill="#4b271a" fill-rule="evenodd" stroke="none"/>
      <path d="M-15.0 10.9 Q-14.9 10.1 -14.4 9.05 -13.4 6.95 -11.45 5.9 L-12.6 4.25 -10.15 3.05 -10.0 3.95 -11.7 4.4 -10.35 5.8 -12.0 7.0 Q-13.75 8.6 -14.4 10.7 L-15.0 10.9" fill="#4b271a" fill-rule="evenodd" stroke="none"/>
      <path d="M-2.3 6.05 L-0.55 6.4 Q2.8 8.05 3.25 10.95 2.4 8.65 -0.05 7.15 L-2.3 6.05" fill="#6e3d34" fill-rule="evenodd" stroke="none"/>
      <path d="M-6.8 8.25 L-6.25 9.05 -9.6 12.15 Q-9.45 10.3 -8.1 9.1 L-6.8 8.25" fill="#6e3d34" fill-rule="evenodd" stroke="none"/>
      <path d="M-1.75 8.2 L-1.2 9.45 Q-2.5 12.45 -3.95 13.7 -1.85 11.4 -1.75 8.2" fill="#6e3d34" fill-rule="evenodd" stroke="none"/>
      <path d="M-14.25 10.55 Q-13.0 9.4 -11.05 8.95 L-9.4 8.7 -9.6 9.5 -12.95 9.95 -14.25 10.55" fill="#6e3d34" fill-rule="evenodd" stroke="none"/>
      <path d="M-12.0 4.6 L-10.45 5.7 Q-12.75 6.95 -13.75 8.75 L-14.25 10.25 -14.3 11.2 Q-15.1 9.3 -13.5 7.35 L-11.75 5.8 Q-12.25 5.1 -13.4 4.35 L-10.6 3.25 -10.4 4.05 -12.0 4.6" fill="#4b271a" fill-rule="evenodd" stroke="none"/>
    </g>
    <g id="sprite3" transform="matrix(1.0, 0.0, 0.0, 1.0, 10.0, 8.65)">
      <use height="17.45" transform="matrix(1.0, 0.0, 0.0, 1.0, -10.0, -8.65)" width="19.95" xlink:href="#shape3"/>
    </g>
    <g id="shape3" transform="matrix(1.0, 0.0, 0.0, 1.0, 10.0, 8.65)">
      <path d="M6.95 -3.6 L8.0 -2.6 Q10.75 -0.7 9.65 1.15 8.85 2.45 2.75 1.65 1.2 3.85 -0.15 3.3 L-1.45 5.75 Q-3.5 8.85 -4.35 8.8 -6.45 8.8 -6.6 5.4 -6.7 4.25 -6.85 4.05 L-7.7 3.15 Q-10.1 0.75 -10.0 -0.55 -9.9 -1.2 -9.3 -1.6 L-9.2 -1.65 -9.15 -1.65 Q-5.85 -3.0 -2.8 -2.05 -1.85 -2.9 -0.85 -3.1 L-0.05 -3.2 Q0.2 -5.85 3.35 -8.55 L3.4 -8.6 3.45 -8.6 4.75 -8.65 Q6.05 -8.0 6.65 -4.75 L6.95 -3.6" fill="#5b0062" fill-rule="evenodd" stroke="none"/>
      <path d="M-3.85 -0.9 Q-3.15 -1.3 -3.2 1.2 -2.85 1.8 -1.0 2.95 -2.5 8.2 -4.4 8.15 -5.5 8.1 -5.85 6.25 -6.3 3.8 -6.45 3.6 L-8.6 1.15 Q-9.95 -0.65 -9.05 -1.2 L-3.85 -0.9" fill="#c55bfc" fill-rule="evenodd" stroke="none"/>
      <path d="M3.65 -8.15 Q4.65 -8.65 5.45 -6.6 L6.35 -3.45 Q6.45 -3.15 8.3 -1.5 9.7 -0.2 9.1 0.75 8.1 2.4 2.95 0.8 3.0 -1.15 2.7 -1.75 0.3 -3.0 1.0 -3.4 1.75 -3.8 3.65 -8.15" fill="#c55bfc" fill-rule="evenodd" stroke="none"/>
      <path d="M-2.25 -1.35 L-0.25 -2.45 1.7 -1.35 Q2.0 -1.05 1.85 0.2 L1.5 1.65 Q1.0 2.05 0.0 2.35 L-2.0 0.95 Q-2.85 0.45 -2.25 -1.35" fill="#b642fc" fill-rule="evenodd" stroke="none"/>
      <path d="M-8.25 -0.55 L-6.5 -0.35 -5.0 0.25 Q-5.7 0.4 -5.8 2.1 L-5.75 3.75 -7.15 1.8 Q-8.45 -0.2 -8.25 -0.55" fill="#e1acf7" fill-rule="evenodd" stroke="none"/>
      <path d="M4.1 -7.3 L4.55 -5.55 Q4.85 -4.0 5.4 -3.35 L8.05 -0.05 Q8.25 0.55 7.2 0.55 6.2 0.55 5.35 0.05 4.7 -0.35 4.65 -0.95 L4.6 -2.3 2.85 -4.1 4.1 -7.3" fill="#e1acf7" fill-rule="evenodd" stroke="none"/>
      <path d="M-0.9 -1.4 L0.75 -1.2 Q1.35 -0.65 0.95 0.9 0.25 0.15 -0.3 0.25 -0.85 0.4 -1.25 -0.05 -1.7 -0.6 -0.9 -1.4" fill="#e1acf7" fill-rule="evenodd" stroke="none"/>
      <path d="M-8.95 -1.2 L-7.2 -1.6 Q-5.15 -1.9 -3.85 -1.6 L-8.25 -1.0 -8.95 -1.2" fill="#c55bfc" fill-rule="evenodd" stroke="none"/>
      <path d="M3.65 -8.15 L3.45 -7.5 Q2.95 -7.4 0.85 -4.25 1.25 -5.5 2.5 -6.95 L3.65 -8.15" fill="#c55bfc" fill-rule="evenodd" stroke="none"/>
    </g>
  </defs>
</svg>
